svg/fluentui-system-icons/ic_fluent_text_align_left_rotate_90_24_filled.svg

<svg width="24" height="24" viewBox="0 0 24 24" fill="none" xmlns="http://www.w3.org/2000/svg">
<path d="M18 2C18.5523 2 19 2.44772 19 3V18C19 18.5523 18.5523 19 18 19C17.4477 19 17 18.5523 17 18V3C17 2.44772 17.4477 2 18 2ZM6 2C6.55229 2 7 2.44772 7 3V14C7 14.5523 6.55229 15 6 15C5.44771 15 5 14.5523 5 14V3C5 2.44772 5.44771 2 6 2ZM13 3C13 2.44772 12.5523 2 12 2C11.4477 2 11 2.44772 11 3V21C11 21.5523 11.4477 22 12 22C12.5523 22 13 21.5523 13 21V3Z" fill="#212121"/>
</svg>

<svg xmlns="http://www.w3.org/2000/svg" width="24" height="24"><path d="M18 2a1 1 0 0 1 1 1v15a1 1 0 1 1-2 0V3a1 1 0 0 1 1-1ZM6 2a1 1 0 0 1 1 1v11a1 1 0 1 1-2 0V3a1 1 0 0 1 1-1Zm7 1a1 1 0 1 0-2 0v18a1 1 0 1 0 2 0V3Z"/></svg>
